Papirus/22x22/panel/yd-busy1.svg

<?xml version="1.0" encoding="UTF-8" standalone="no"?>
<svg xmlns:dc="http://purl.org/dc/elements/1.1/" xmlns:cc="http://creativecommons.org/ns#" xmlns:rdf="http://www.w3.org/1999/02/22-rdf-syntax-ns#" xmlns:svg="http://www.w3.org/2000/svg" xmlns="http://www.w3.org/2000/svg" version="1.0" width="22" height="22" id="svg2817">
    <metadata id="metadata57">
        <rdf:RDF>
            <cc:Work rdf:about="">
                <dc:format>
                    image/svg+xml
                </dc:format>
                <dc:type rdf:resource="http://purl.org/dc/dcmitype/StillImage"/>
                <dc:title/>
            </cc:Work>
        </rdf:RDF>
    </metadata>
    <path style="opacity:1000002;fill:#ffffff;fill-opacity:1" d="m 3.000934,11.028003 c -0.1531036,0.09683 -0.2714577,0.183901 -0.3589028,0.254735 0.098857,-0.07922 0.2211268,-0.165241 0.3589028,-0.254735 z m 15.688894,0.190235 c 0.03598,0.03094 0.07276,0.06168 0.101539,0.09104 -0.02212,-0.02253 -0.05785,-0.0547 -0.101539,-0.09104 z M 10.654767,9.4390387 c 4.706288,-0.030321 6.944162,1.0286503 7.772618,1.5841003 C 17.517252,10.409842 15.628513,9.6057048 14.782126,8.7359569 13.973421,7.9048575 13.41477,5.8953272 10.676937,5.9130085 7.9396568,5.9308921 7.406736,7.8952583 6.5351847,8.7901748 5.8211834,9.5240664 3.9876958,10.385179 3.0012765,11.027549 3.9332796,10.435983 6.1606528,9.4689982 10.654973,9.4390938 Z m 2.008255,-2.2005691 c 0.257461,-0.0016 0.614389,0.1773342 0.854429,0.4696443 0.341273,0.4149233 0.344972,0.9083393 -0.1478,0.9115405 -0.493271,0.00305 -0.992129,-0.48656 -1.07644,-0.9032195 -0.05914,-0.2940524 0.112797,-0.4766017 0.369817,-0.4779359 z M 10.697543,7.0648504 c 0.421663,-0.00224 0.761541,0.2887916 0.759487,0.651296 -0.0024,0.361663 -0.346013,0.6576968 -0.767656,0.6600684 C 10.267536,8.3788022 9.9277042,8.0879062 9.9297084,7.7253823 9.932074,7.3637357 10.275611,7.0679294 10.697589,7.0648835 Z M 7.8693914,7.7447706 C 8.1137197,7.449255 8.472561,7.2658817 8.729627,7.26382 8.9864359,7.2621812 9.1566152,7.4424493 9.0935101,7.7368531 9.0039158,8.1546795 8.4988369,8.650762 8.0054897,8.6541363 7.5130721,8.6574005 7.5230506,8.1642484 7.8693398,7.7447568 Z M 18.839878,12.564523 c 0.01034,-1.274973 -3.623048,-2.172254 -8.112773,-2.13621 -4.4894679,0.03611 -8.1374896,0.991316 -8.1466668,2.266056 -0.00682,0.862627 1.6552176,1.797435 4.120028,2.300843 0.9904264,0.358559 2.3883907,0.573275 3.9433668,0.563038 1.532546,-0.0098 2.916365,-0.235584 3.908517,-0.597058 2.54585,-0.537556 4.280713,-1.51876 4.287381,-2.396737 z m -8.191542,2.392323 c -1.9522141,0.01282 -3.533416,-0.265021 -3.5299391,-0.766775 0.00303,-0.501356 1.5879355,-0.895467 3.5404371,-0.907914 1.952136,-0.01335 3.532546,0.361613 3.529656,0.863237 -0.003,0.501127 -1.588267,0.798826 -3.540215,0.811476 z" id="yandex-ufo"/>
</svg>

<?xml version="1.0" encoding="UTF-8" standalone="no"?>
<svg id="svg2817" xmlns:rdf="http://www.w3.org/1999/02/22-rdf-syntax-ns#" xmlns="http://www.w3.org/2000/svg" height="22" width="22" version="1.0" xmlns:cc="http://creativecommons.org/ns#" xmlns:dc="http://purl.org/dc/elements/1.1/">
 <metadata id="metadata57">
  <rdf:RDF>
   <cc:Work rdf:about="">
    <dc:format>image/svg+xml</dc:format>
    <dc:type rdf:resource="http://purl.org/dc/dcmitype/StillImage"/>
    <dc:title/>
   </cc:Work>
  </rdf:RDF>
 </metadata>
 <path id="yandex-ufo" opacity="1e6" d="m3.0009 11.028c-0.1531 0.09683-0.27146 0.1839-0.3589 0.25474 0.098857-0.07922 0.22113-0.16524 0.3589-0.25474zm15.689 0.19024c0.03598 0.03094 0.07276 0.06168 0.10154 0.09104-0.02212-0.02253-0.05785-0.0547-0.10154-0.09104zm-8.035-1.779c4.7063-0.030321 6.9442 1.0287 7.7726 1.5841-0.911-0.613-2.799-1.4173-3.646-2.287-0.809-0.8311-1.367-2.8407-4.105-2.823-2.7373 0.0179-3.2703 1.9823-4.1418 2.8772-0.714 0.7339-2.5475 1.5948-3.5339 2.2378 0.932-0.592 3.1594-1.559 7.6537-1.5889zm2.0083-2.2006c0.25746-0.0016 0.61439 0.17733 0.85443 0.46964 0.34127 0.41492 0.34497 0.90834-0.1478 0.91154-0.49327 0.00305-0.99213-0.48656-1.0764-0.90322-0.05914-0.29405 0.1128-0.4766 0.36982-0.47794zm-1.965-0.1735c0.42166-0.00224 0.76154 0.28879 0.75949 0.6513-0.0024 0.36166-0.34601 0.6577-0.76766 0.66007-0.422 0.0025-0.7623-0.2884-0.7603-0.6509 0.0024-0.3617 0.3463-0.6575 0.7683-0.6605zm-2.8286 0.6799c0.2443-0.2955 0.6032-0.4789 0.8602-0.481 0.2568-0.0016 0.427 0.1786 0.3639 0.4731-0.0896 0.4178-0.5947 0.9139-1.088 0.9172-0.4924 0.0033-0.4824-0.4899-0.1362-0.9093zm10.971 4.8202c0.01034-1.275-3.623-2.1723-8.1128-2.1362-4.4895 0.03611-8.1375 0.99132-8.1467 2.2661-0.00682 0.86263 1.6552 1.7974 4.12 2.3008 0.99043 0.35856 2.3884 0.57328 3.9434 0.56304 1.5325-0.0098 2.9164-0.23558 3.9085-0.59706 2.5458-0.53756 4.2807-1.5188 4.2874-2.3967zm-8.1915 2.3923c-1.9522 0.01282-3.5334-0.26502-3.5299-0.76678 0.00303-0.50136 1.5879-0.89547 3.5404-0.90791 1.9521-0.01335 3.5325 0.36161 3.5297 0.86324-0.003 0.50113-1.5883 0.79883-3.5402 0.81148z" fill="#fff"/>
</svg>
